X:1
T:Souvenir d'un lieu cher
T:Souvenir d'un lieu cher
T:III. Mélodie
T:P. Tchaikovsky, Op. 42
C:P. Tchaikovsky, Op. 42
%%score 1 { 2 | ( 3 4 ) }
L:1/8
Q:1/4=78
M:3/4
K:Eb
V:1 treble nm="Violin" snm="Vln."
V:2 treble nm="Piano" snm="Pno."
V:3 bass 
V:4 bass 
V:1
"^Moderato con moto\n""^\n"!mp! z"_espressivo" (g fe de) |!<(! (fc) f4-!<)! |!>(! f(e dc de)!>)! | %3
!<(! (e_c) e4-!<)! | e(B!>(! =cB AG)!>)! |!<(! (c=E) F4-!<)! | F(_E F)E DC | (_CF)!>(! B,4-!>)! | %8
!<(! B,/(.=C/.D/).E/ .F/.G/.A/.=A/ (3(B/c/d/(3e/f/^f/!<)! |!mf! g)(g fe de) | (fc) f4- | %11
"_dim." f(e dc de) | (e=B) e4- | e!<(!(d cB AG)!<)! |"_cresc." (d^F) G4- | G(E DC) (B,=A,) | %16
!f!!>(! G,6-!>)! |!p! G,/(.=A,/.B,/).^C/ .D/.=E/.^F/!tenuto!G/ (3(=A/B/^c/(3d/^f/g/) | %18
[Q:1/4=92]"^\n""^grazioso scherzando" (_a/_A/)(.g/.f/) (e/d/)(.f/.e/)({de)} (d/c/)(.B/.A/) | %19
!<(! (G/B/d/e/) e!>(! vE2 =E!<)!!>)! |!<(! (F/A/)=B/c/ c!>(! vC2 D!<)!!>)! | %21
!<(! (E/F/^F/c/) (=B/d/^f/)!tenuto!g/"_poco rit."[Q:1/4=80] (d'/=b/g/)d/!<)! | %22
!p!"^a tempo"[Q:1/4=92] (_a/_A/)(.g/.f/) (e/d/)(.f/.e/)({de)} (d/c/)(.B/.A/) | %23
"_cresc." (G/B/d/e/) e vE2 c | (A/c/=e/f/) f vF2 c | %25
 (d/f/a/g/)"_poco rit."[Q:1/4=80]!>(! (f/e/d/)!tenuto!=A/ (B/c/d/f/)!>)! | %26
"^a tempo\n"!p![Q:1/4=92] (_a/_A/)(.g/.f/) (e/d/)(.f/.e/)({de)} (d/c/)(.B/.A/) | %27
!<(! (G/B/d/e/) e!>(! vE2 =E!<)!!>)! | (F/!<(!A/=B/c/) c!>(! vC2 D!<)!!>)! | %29
!<(! (E/F/^F/c/) (=B/d/^f/)!tenuto!g/"_poco rit."[Q:1/4=80] (d'/=b/g/)d/!<)! | %30
!p!"^a tempo"[Q:1/4=92] (a/A/)(.g/.f/) (e/d/)(.f/.e/)({de)} (d/c/)(.B/.A/) | (G/B/d/e/) e vE2 c | %32
"_cresc." (A/c/=e/f/) f vF2 d | (B/d/^f/g/) g !^!G2!f! (!>!g |[Q:1/4=78] G)(!>!a A)(!>!b B)(!>!c' | %35
 c)"_cresc."(!>!c' c)(!>!c' d)c' |!ff!"^♮"[Q:1/4=92]"^\n" Td'6 |"^♮" !trill(!Td'6 | %38
"^♮""_dim." !trill(!Td'6 |"^♮" !trill(!Td'6 |"^♮"!mf! !trill(!Td'6{^c'd'} | %41
"^♮""_dim." !trill(!Td6{^cd} |"^♮"!p!"_poco rit."[Q:1/4=80] (!trill(!TD6{^CD} | %43
"^Poco meno mosso" G/)(B,/=B,/)D/"_cresc." (G4 | A/)(=B,/C/F/!<(! (A4!<)! | =A/))(=E/F/A/ c4- | %46
!f! c/)(=A/B/d/ f) f2 f- | (3f"_dim."(.f.f (3.f.f.f)[Q:1/4=55]"^\n\n""^molto rit." (3(.f.f.f) | %48
 f ^f2!mp! f2!>(! !fermata!f-!>)! |!pp! (f[Q:1/4=78]"^\n""^Tempo I"g =fe de) | (fc) f4- | %51
 f(e dc de) | (e_c) e4- |!<(! e(B cB AG)!<)! |!>(! (c=E) F4-!>)! |!<(! F(_E FE DC)!<)! | %56
 (_CF)!>(! B,4-!>)! |!p!!<(! B,/(.=C/.D/.E/ .F/.G/.A/.=A/) (3(B/c/d/(3e/f/^f/!<)! | %58
!mf! g)(g =fe de) | (g=e) c4 | z"_cresc." (a gf =ef) | (=a^f) d4 | %62
!f! z"^largamente" !tenuto!b !tenuto!=a!tenuto!b !tenuto!c'!tenuto!d' | %63
 (!tenuto!e'!tenuto!d') !tenuto!c'!tenuto!b (!tenuto!a!tenuto!g) | %64
 (gf)"_rit."[Q:1/4=72]"^\n"!>(! (c'3 c)!>)! |[Q:1/4=68] (fe) (c'3 c) | %66
[Q:1/4=78]"_a tempo"!f! z (vG AB c)(=E | FG A)!<(!(C DE)!<)! |[Q:1/4=72]"_poco rit." G2 G2 G2 | %69
!>(! (GF)[Q:1/4=50] !fermata!B3[Q:1/4=40] (!fermata!D!>)! |[Q:1/4=78]"^Tempo I" E)!p!(G FE DE) | %71
 (^F!<(!=B,) (F4!<)! |!>(! G)!p!(G FE DE)!>)! | (^F=B,)!<(! (F4!<)! |!>(! G)!p!(G E_B, EG)!>)! | %75
 (c!>(!B GE GB)!>)! |!>(! (fe BG Be)!>)! | (gB e!<(!g be'!<)! | %78
!>(! g')(g' f'e'"_rit.\n" d'e')!>)! |!p! z[Q:1/4=72] (g' f')e'[Q:1/4=68] d'e'- | %80
[Q:1/4=64]"_dim." e'(b g[Q:1/4=60]e BG) |!pp![Q:1/4=40] E2 !fermata!z4 |] %82
V:2
!p! z [B,EG]2 [B,EG]2 [B,EG] | z [=A,CEF]2 [A,CEF]2 [A,CEF] | z [=A,CE_G]2 [A,CEG]2 [A,CEG] | %3
 z [_A,_CEF] z [=G,B,E]2 [=G,B,E] | z [G,B,=E]2 [G,B,E] z [G,B,E] | z [B,=E] z [A,CF] z [A,CF] | %6
 z [CFc]2 [CFc] z [C_EF] | z [_CEF] z [B,=DF]2 [B,=DF]- | [B,=DF]4 z2 | z [B,EG]2 [B,EG]2 [B,EG] | %10
 z [=A,CEF]2 [A,CEF]2 [A,CEF] | z [=A,CE_G]2 [A,CEG]2 [A,CEG] | z [_A,_CEF] z [=G,B,E]2 [=G,B,E] | %13
 z [G,B,E]2 [G,B,E] z [G,B,^C] | z [=A,=CD] z [B,D] z [G,B,E] | z [G,=A,E] z [^F,A,D] z [CD^F] | %16
!f! z!>(! b gd B=A!>)! | [B,DG]2 z4 |!p! [CFA] z [A,CF] z [A,-DF-]2 | [A,F] z [G,B,]4 | %20
 [F,A,C]2 [G,C=E]2 [F,CF]2 | [C^F]2!>(! [=B,G] z z2!>)! |!p! [CFA] z [A,CF] z [A,DF]2 | %23
 [G,E] z"_poco cresc.""_cresc." [CE]2 [A,CE]2 | [A,CF]2 [CF]2 [CEF]2 |!mf! [B,DF]2 z4 | %26
!p! [CFA] z [A,CF] z [A,DF]2 | [G,E] z [G,B,]4 |!<(! [F,A,C]2 [G,C=E]2 [F,CF]2!<)! | %29
!>(! [C^F]2 [=B,G] z z2!>)! |!p! [CFA] z [A,CF] z [A,DF]2 | %31
 [G,E] z"_poco cresc.""_cresc." [B,E]2 [A,CE]2 | [A,CF]2 [CF]2 [B,DF]2 | [B,DG]2 [DG]2 [CEG]2 | %34
!mf! [Fe]4!<(! [Geg]2-!<)! | [Geg]2 [c^fc']4 |!f! [=Bg=b]([Bb] [=A=a][Gg] [^F^f][Gg] | %37
 [=A=a])([Dd] [=E=e][=F=f] [^F^f][Gg]) |"_dim." z ([=B=b] [=A=a][Gg] [^F^f][Gg] | %39
 [=A=a])([Dd] [=E=e][=F=f] [^F^f][Gg]) |!mf! z ([=B=b] [=A=a][=G=g] [^F^f][Gg]) | z (=B =AG ^FG) | %42
 z!p! (=B, =A,G, ^F,G,) | z2!mp! z"_cresc." [G=B] [GBd][GBdg] | [Acfa]2 z [Ac] [Acf][Acfa] | %45
 [=Acf=a]2 z [Ac] [Acf][Acfg] | [Bfb]2 [=Ae=a]2 [_Ae_a]2 |!f! [Ada]2 z4 | z6 |!p! z2 [Bb]4 | %50
 z"_poco espressivo" ([ee'] [dd'][cc'] [dd'][ee']) | z2 [cc']4 | z ([ee'] [_c_c'][Bb] [dd'][ee']) | %53
 z [B,D=G]2 [B,DG]2 [B,DG] | z (c [Ff][Gg] [Aa][cc']) |!<(! z [CFc]2 [CFc] z [C_EF]!<)! | %56
!>(! z ([_CEF] [B,B][=C=c] [Dd][Ff])!>)! | [Bb]4 z2 | %58
!p! z"_poco cresc." [G,B,E]2"_cresc." [G,B,E] z [G,B,E] | z2 ([Gg][=E=e] [Cc]2) | %60
"_cresc." z [A,CF]2 [A,CF] z [A,CF] | z2 ([=A=a][^F^f] [Dd]2) |!mf! z [B,DG]2 [B,DG] z [B,D_A] | %63
"_cresc." z ([Gg] [^F^f][Gg] [Aa][Bb]) | [cc']2 [Ff]4 | [cc']2 [^F^f]4 |!f! [GBeg]2 z2 [C=E]2 | %67
 [CF]2 z2 C2 |"_poco rit." [=B,D]2 [_B,E]2 [=A,E]2 |!>(! [DB]4 !fermata![A,B,]2!>)! | %70
!p! [G,B,] z z4 | z2!>(! ([=B=b][^F^f] [Bb]2)!>)! |!p! [Bb]2- [Bb] z z2 | %73
!<(! z2 ([=B=b][^F^f] [Bb]2)!<)! |!>(! [Bb]6!>)! |!pp! [GBg]4 [GBe]2 | [EGB]6- | [EGB]2 z4 | %78
 [gb]4"_rit." [^f=ac']2 | [gb]4 [^f=ac']2 | [gb]6 | [G,B,E]2 !fermata!z4 |] %82
V:3
 [E,,E,] z z2 z2 | [E,,E,] z z2 z2 | [E,,E,] z z2 z2 | [E,,E,] z [E,,E,]4 | _D,4 C,2 | %5
 z2 (C,2 F,2) | A,4 A,,2 | =A,,2 B,,4- | B,,4 z2 | [E,,E,] z z2 z2 | [E,,E,] z z2 z2 | %11
 [E,,E,] z z2 z2 | [E,,E,] z [E,,E,]4 | E,,4 E,2 |"^cresc." D,2 G,2 E,2 | C,2 D,2 D,,2 | %16
 G,,2 [D,G,B,D]4 | [G,,D,G,]2 z4 | F,, z F, z B,,2- | [E,,B,,] z E,2 _D,2 |!<(! C,2 B,,2 A,,2!<)! | %21
 (E,=D,) [G,,D,] z z2 | =F,, z F, z B,,2 | [E,,B,,] z [G,,E,]2 A,,2 | [F,,F,]2 [A,,F,]2 [=A,,F,]2 | %25
 [B,,F,]2 z4 | F,, z F, z B,,2 | [E,,B,,] z E,2 _D,2 | C,2 B,,2 A,,2 | E,=D, [G,,D,] z z2 | %30
 F,, z F, z B,,2 | [E,,B,,] z [G,,E,]2 [A,,E,]2 | [F,,F,]2 [A,,F,]2 [B,,F,]2 | %33
 [G,,G,]2 [B,,G,]2 [C,G,]2 | E,4 E,2- | [=A,,E,=A,]2 [_A,,D,_A,]4 | z D C=B, =A,B, | %37
 C2 (=A,D) =B, z | z (D C=B, =A,B, | C2) (=A,D) =B,2 | z (D C=B, =A,B,) | z (D C=B, =A,B,) | %42
 z (D C=B, =A,B,) | z2 z [G,=B,D] [G,B,D][G,B,D] | [F,A,CF]2 z [F,A,CF] [F,A,CF][F,A,CF] | %45
 [E,F,=A,CE]2 z [E,F,A,CE] [E,F,A,CE][E,F,A,CE] | [D,F,B,D]2 [C,F,C]2 [_C,F,_C]2 | [B,,F,B,]2 z4 | %48
 z6 | [E,,E,] [B,EG]2 [B,EG]2 [B,EG] | E, [=A,CF]2 [A,CF]2 [A,CF] | %51
 E, [=A,CE_G]2 [A,CEG]2 [A,CEG] | E,[A,_CF] E, [G,B,E]2 [G,B,E] | _D,4 C,2 | %54
 F,,[G,B,=E] F, [A,CF]2 [A,CF] | A,4 A,,2 | =A,,2 z [F,A,B,]2 [F,A,B,]- | [F,A,B,]4 z2 | E,4 _D,2 | %59
 C,[G,B,=E]- [G,B,E][G,B,]- [G,B,][G,B,] | F,4 E,2 | D,[=A,C^F]- [A,CF][A,C]- [A,C][A,C] | %62
 [G,,G,]4 [=F,,=F,]2 | [E,,E,][B,E] E, [B,E]2 [B,E] | [A,,A,] [A,C]2 [A,C]2 [A,C] | %65
 [=A,,=A,] [A,C]2 [A,C]2 [A,C] | [B,,E,G,B,]2 z2 [B,,G,]2 | [A,,F,]2 z2 A,2 | x4 G,2 | %69
 [B,,_A,]4 !fermata![B,,F,]2 | [E,,E,] [E,G,B,]2 [E,G,B,]2 [E,G,B,] | %71
 [^D,^F,=A,^B,] [D,F,A,B,]2 [D,F,A,B,]2 [D,F,A,B,] | [E,,E,] [E,G,B,]2 [E,G,B,]2 [E,G,B,] | %73
 [^D,^F,=A,^B,] [D,F,A,B,]2 [D,F,A,B,]2 [D,F,A,B,] | [E,G,B,]6 | [E,B,E]4 [E,B,E]2 | [E,B,]6- | %77
 [E,B,]2 z4 |[K:treble] e4 e2 | e4 e2 | e6 |[K:bass] [E,,E,]2 !fermata!z4 |] %82
V:4
 x6 | x6 | x6 | x6 | x6 | F,,6 | x6 | x6 | x6 | x6 | x6 | x6 | x6 | x6 | x6 | x6 | x6 | x6 | x6 | %19
 x6 | x4 x2 | A,,2 x4 | x6 | x6 | x6 | x6 | x6 | x6 | x6 | A,,2 z4 | x6 | x6 | x6 | x6 | %34
 [C,C]2 [_C,_C]2 [B,,A,]2 | x2 x4 | [G,,D,G,]G,- G,4 | G,6 | G,,G,- G,4 | G,6 | G,6 | G,6 | G,,6 | %43
 x6 | x6 | x6 | x6 | x6 | x6 | x6 | x6 | x6 | x6 | x6 | x6 | x6 | x2 B,,4 | x6 | x6 | x6 | x6 | %61
 x6 | x6 | x6 | x6 | x6 | x6 | x6 | G,2 [E,G,]2 C,_C, | x6 | x6 | x6 | x6 | x6 | x6 | x6 | x6 | %77
 x6 |[K:treble] x6 | x6 | x6 |[K:bass] x6 |] %82

